X:1
T:(1797-1828)
T:Franz Schubert (1797-1828)
T:Salve Regina
T: in C major, D 811/Op. 149 
T:Für vier Männerstimmen
C:Franz Schubert
%%score [ 1 2 3 4 ]
L:1/8
Q:1/4=72
M:3/4
K:C
V:1 treble-8 nm="TENORE I"
V:2 treble-8 nm="TENORE II"
V:3 bass nm="BASSO I"
V:4 bass nm="BASSO II"
V:1
!f!"^Andantino" e2 c3 f | e>d c2 z2 |!<(! e2 fg!<)!!>(! af!>)! | d3/2e/4f/4 e2 z2 |!p! g2 e2 z g | %5
w: Sal- ve Re-|gi- * na,|ma- ter mi- se- ri-|cor- \-di- * ae,|vi- ta, dul-|
 g/f/e/f/ d4 | e3 d Bf | e2 d2 z2 | g2 e2 z e | g/f/a/f/ d4 |!f!!<(! c3 d eg/f/!<)! | %11
w: ce- * * * do|et spes nos- tra|sal- ve,|vi- ta dul-|ce- * * * do|et spes nos- tra _|
!>(! ed c2!>)! z2 |!pp! ed c2 !fermata!z!f! E | e4- ef |!<(! ea!<)!!>(! ^g4!>)! | %15
w: sal- * ve,|sal- ve, * ad|te _ cla-|ma- * mus|
!p! g2 ^fe f/g/f/e/ | ^d3/2e/4^f/4 e2 z!f! E | e4 ef |!<(! ea!<)!!>(! ^g3!>)! e | %19
w: e- xu- les fi- * li- \-i|E- * * væ, ad|te sus- pi-|ra- * mus ge-|
 ^cg"^decresc." ^f3 d/=c/ | Bf e3!pp! e | e2 ee ee | (!turn!e4 g^f) | e4 z2 |!p!!<(! ^f4!<)! f2 | %25
w: men * tes et _|flen- * tes in|hac la- cry- ma- rum|val- * *|le.|E- ia|
!ff! (g2!>(! a3)!>)! g |!mf! g3 e ge | d>c B2 z2 |!p!!<(! d4 e!<)!^f |!ff! (g2!>(! a3) g!>)! | %30
w: er- * go,|ad- vo- ca- ta|nos- * tra,|il- los _|tu- * os|
!mf! g2 ^fd"E" ge | d>c Bc de |!p!!>(! A2 (e3!>)! A) | A2 z2 z2 | z!mf! e2 e fe | ea e4 | %36
w: mi- se- ri- cor- des|o- cu- los ad nos con-|ver- * *|te,|et os- ten- de|no- * bis,|
 d2 dd{^f} ed | d/e/^f/g/ d2!f! =f2- | f2 e z g2- | g^f/g/!>(! (a2!>)! g2) | %40
w: no- bis post hoc e-|xi- * li- * um Je-|* sum fi-|* li- um tu- *|
!p! !fermata!^f4!pp! d2 | g6 | ^f4 z d | g6 | ^f4 z d |"^cresc." g6 | ^f6 |!f! e>^f g2 a2 | ^f6 | %49
w: um, o|cle-|mens, o|pi-|a, o|dul-|cis|vir- * go Ma-|ri-|
 g4 z2 |!pp! e2 c3 f | ed c2 z2 |!f!!<(! d2 f!<)!g!>(! af!>)! | d3/2e/4f/4 e2 z2 |!p! g2 e2 z g | %55
w: a.|Sal- ve Re-|gi- * na,|ma- ter mi- se- ri-|cor- di- * æ,|vi- ta dul-|
 g/f/e/f/ d4 | e3 d cf | e2 d2 z2 | g2 e2 z g | g/a/g/f/ e4 |!f! d3 ^c df | !>!ed ^c2 z2 | %62
w: ee- * * * do|et spes- nos- tra|sal- ve,|vi- ta, dul-|ce- * * * do|et spes nos- tra|sal- * ve,|
!pp!!>(! ed!>)! !fermata!^c3!f! A | (f3 g f)e |!<(! de!<)!!>(! ^c4!>)! |!p! c2 de fe/f/ | %66
w: sal- * ve, ad|te _ _ cla-|ma- * mus|e- xu- les fi- li- i|
 a>g f2 z!f! A | (f3 g) fe | de ^c3 c | de"^decresc." ^c3 c | de ^c3 c |!p! d2 cd ef | %72
w: E- * væ, ad|te _ sus- pi-|ra- * mus- ge-|men- * tes et|flen- * tes in|hac la- cry- ma- rum|
!pp! (B4 ^d^f) | e4 z2 |!p!!<(! ^f4 f2!<)! |!ff! (g2!>(! a3) g!>)! |!f! g3 e gf | %77
w: val- * *|le.|E- ia|er- * go,|ad- vo- ca- ta|
 d3/2e/4f/4 e2 z2 |!p!!<(! d4 e!<)!^f | (g2!>(! a3) g!>)! |!f! g2 fe g>f | d3/2e/4f/4 e!p!f ga | %82
w: nos- * * tra,|il- los _|tu- * os|mi- se- ri- cor- des|o- cu- * los ad nos con-|
!p!!>(! (d4!>)! a2) | d2 z2 z2 |!p! z f2 f _ed | _e>f e4 | g2 gg f_e | d3/2f/4_e/4 d2!>(! e2- | %88
w: ver- *|te,|et os- ten- de|no- * bis,|no- bis post hoc e-|xi- Ii- * um Je-|
 e2!>)! d z!f! ^f2 | f^f/g/!p! a4 | !fermata!g4 z2 | z6 | z!p! g ^fg ag | g6 | gg ^fg ag | %95
w: * sum, fi-|* li- um tu-|um,||o cle- * mens, o|pi-|a, o pi- * a, o|
"^cresc." g6 | ^g6 |!>(! (a3!>)! f) ef |!p! d2 e2!pp! G2 | g6 | g4 z g | g6 | g4 z g |!<(! g6 | %104
w: dul-|cis|vir- * go Ma-|ri- a, o|cle-|mens, o|pi-|a, o|dul-|
 ^g6!<)! |!f! a>f e2 ^e2 |!ff! g6 | g4 !fermata!z2 |!pp! e2 c3 g | e>d c2 z2 | %110
w: cis|vir- * go Ma-|ri-|a.|Sal- ve Re-|gi- * na,|
!mf!!<(! e2 f!<)!g!>(! af!>)! | d3/2e/4f/4 e2 z2 |!pp! e2 ^c2 z2 | e2 ^c2 z2 | %114
w: rna- ter mi- se- ri-|cor- di- * æ,|sal- ve,|sal- ve,|
!ff!!<(! a2!<)!!>(! _b4!>)! | ag/f/ (e3 d) | c2 z2!p! ed | c2!pp! z2 !fermata!ed | %118
w: sal- *|* ve Re- gi- *|na, sal- *|ve, sal- *|
 !fermata!c2 z2 z2 |] %119
w: ve.|
V:2
!f! c2 c3 c | B2 c2 z2 |!<(! c2 de!<)!!>(! fd!>)! | B>B c2 z2 |!p! e2 c2 z e | e/d/^c/d/ G4 | %6
w: Sal- ve Re-|gi- na,|rna- ter mi- se- ri-|cor- di- ae,|vi- ta, dul-|ce- * * * do|
 c3 B cd | c2 B2 z2 | e2 c2 z c | e/d/f/d/ G4 |!f!!<(! A3 B cd!<)! |!>(! B2 c2!>)! z2 | %12
w: et spes nos- tra|sal- ve,|vi- ta dul-|ce- * * * do|et spes nos- tra|sal- ve,|
!pp! B2 c2 !fermata!z!f! E | (c3 dc)d |!<(! c^d!<)!!>(! e4!>)! |!p! e2 ^de cc/c/ | B2 B2 z!f! E | %17
w: sal- ve, ad|te _ _ cla-|ma- * mus|e- xu- les fi- li- i|E- væ ad|
 c3 d cd |!<(! c!<)!^d!>(! e3!>)! ^G | A^c"^decresc." d3 ^F | GB c3!pp! G | GB cc BA | (B4 ^d2) | %23
w: te _ sus- pi-|ra- * mus ge-|men- * tes et|flen- * tes in|hac _ la- cry- ma- rum|val- *|
 e4 z2 |!p!!<(! c4!<)! c2 |!ff! B!>(!f f4!>)! |!mf! e3 c ec | A2 G2 z2 | z2!p!!<(! c2 c2!<)! | %29
w: le.|E- ia|er- * go,|ad- vo- ca- ta|nos- tra,|il- los|
!ff! B!>(!f f4!>)! |!mf! e2 dc ec | A>A GG G_B |!p!!>(! A2 (_B3!>)! A) | A2 z2 z2 | z!mf! B2 B BB | %35
w: tu- * os|mi- se- ri- cor- des|o- cu- los ad nos con-|ver- * *|te,|et os- ten- de|
 c2 c4 | c2 cc cc | B>B B2!f! d2- | d2 c z (e2 | d)d/d/!>(! (d3!>)! ^c) |!p! !fermata!d4!pp! d2 | %41
w: no- bis,|no- bis post hoc e-|xi- li- um Je-|* sum, fi-|* li- \-um tu- *|um, o|
 d6 | dd ^cd ed | d6 | dd ^cd ed |"^cresc." d6 | d6 |!f! e>c d2 e2 | c6 | B4 z2 |!pp! c2 c3 c | %51
w: cle-|mens, o cle- * mens, o|pi-|a, o pi- * a, o|dul-|cis|vir- * go Ma-|ri-|a.|Sal- ve Re-|
 B2 c2 z2 |!f!!<(! c2 d!<)!e!>(! fd!>)! | B>B c2 z2 |!p! e2 c2 z e | e/d/^c/d/ G4 | c3 B cd | %57
w: gi- na,|ma- ter mi- se- ri-|cor- di- æ,|vi- ta dul-|ce- * * * do|et spes nos- tra|
 c2 B2 z2 | e2 c2 z e | e/f/e/d/ ^c4 |!f! d3 e dd | !>!^G2 A2 z2 | %62
w: sal- ve,|vi- ta, dul-|ce- * * * do|et spes nos- tra|sal- ve,|
!pp!!>(! ^G2!>)! !fermata!A3!f! A | (d3 e) d^c |!<(! d^G!<)!!>(! A4!>)! |!p! A2 _BB cc/c/ | %66
w: sal- ve, ad|te _ _ cla-|ma- * mus|e- xu- les fi- li- i|
 e2 f2 z!f! A | (d3 e) d^c | d^G A3 A | ^G2"^decresc." A3 A | ^G2 A3 A |!p! B2 AA AA | %72
w: E- væ, ad|te _ sus- pi-|ra- * mus ge-|men- tes et|flen- tes in|hac la- cry- ma- rum|
!pp! (^G4 c2) | B4 z2 |!p!!<(! c4 c2!<)! |!ff! B!>(!f!>)! f4 |!f! e3 c ed | B2 c2 z2 | %78
w: val- *|le.|E- ia|er- * go,|ad- vo- ca- ta|nos- tra,|
 z2!p!!<(! c2 c2!<)! |!ff! B!>(!f!>)! f4 |!f! e2 dc e>d | B>B c!p!c c_e |!p!!>(! (d4!>)! _e2) | %83
w: il- los|tu- * os|mi- se- ri- cor- des|o- cu- los ad nos con-|ver- *|
 d2 z2 z2 |!p! z d2 d cB | c>d c4 | _e2 ee dc | B>c B2!>(! c2- | c2!>)! B z!f! c2- | cc/c/ d4 | %90
w: te,|et os- ten- de|no- * bis,|no- bis post hoc e-|xi- li- um Je-|* sum fi-|* li- um tu-|
!p! !fermata!B4!pp! G2 | c6 | B4 z G | c6 | B4 z B |"^cresc." c6 | d6 |!>(! (c3!>)! d) cd | %98
w: um, o|cle-|mens, o|pi-|a, o|dul-|cis|vir- * go Ma-|
!p! B2 c2!pp! G2 | c6 | d4 z B | c6 | d4 z B |!<(! e6 | d3!<)! f ed |!f! c>d c2 d2 | %106
w: ri- a, o|cle-|mens, o|pi-|a, o|dul-|* * cis *|vir- * go Ma-|
!ff! (e2 d2 c2) | d4 !fermata!z2 |!pp! c2 c3 c | B2 c2 z2 |!mf!!<(! c2 d!<)!e!>(! fd!>)! | %111
w: ri- * *|a.|Sal- ve Re-|gi- na,|rna- ter rni- se- ri-|
 B>B c2 z2 |!pp! ^c2 A2 z2 | ^c2 A2 z2 |!ff!!<(! e6!<)! |!>(! ff/!>)!e/ .c2 B2 | c2 z2!p! B2 | %117
w: cor- di- æ,|||sal-|* ve Re- gi- *|na, sal-|
 c2!pp! z2 !fermata!B2 | !fermata!c2 z2 z2 |] %119
w: ve, sal-|ve.|
V:3
!f! G,2 E,3 A, | G,>F, E,2 z2 |!<(! C2 B,_B,!<)!!>(! B,A,!>)! | G,>G, G,2 z2 | z2!p! G,2 G,2 | %5
w: Sal- ve Re-|gi- * na,|ma- ter mi- se- ri-|cor- di- ae,|vi- ta,|
 z G, G,2 G,2 | G,3 F, E,A, | G,2 G,2 z2 | z2 G,2 G,2 | z G, G,2 G,2 |!f!!<(! E,3 F, G,A,!<)! | %11
w: dul- ce- do|et spes nos- tra|sal- ve,|vi- ta|dul- ce- do|et spes nos- tra|
!>(! F,2 E,2!>)! z2 |!pp! F,2 E,2 !fermata!z z | z!f! E, (CB,C)B, |!<(! CA,!<)!!>(! B,4!>)! | %15
w: sal- ve,|sal- ve,|ad te _ _ cla-|ma- * mus|
!p! B,2 A,G, A,A,/A,/ | A,2 G,2 z2 | z!f! E, CB, CB, |!<(! C!<)!A,!>(! B,3!>)! z | %19
w: e- xu- les fi- li- i|E- væ,|ad te _ sus- pi-|ra- * mus|
 z A,"^decresc." A,B, C2 | z G, G,A, _B,2 |!pp! =B,G, ^F,F, F,F, | (G,4 A,2) | G,4 z2 | %24
w: ge- men- * tes|et flen- * tes|in hac la- cry- ma- rum|val- *|le.|
!p!!<(! A,4!<)! A,2 |!ff! G,!>(!B, B,4!>)! |!mf! C3 G, E,G, | ^F,2 G,2 z2 | z2!p!!<(! A,2 A,2!<)! | %29
w: E- ia|er- * go,|ad- vo- ca- ta|nos- tra,|il- los|
!ff! G,!>(!B, B,4!>)! |!mf! C2 G,G, E,G, | ^F,>F, G,G, G,G, |!p!!>(! (^F,2 G,3!>)! F,) | %33
w: tu- * os|mi- se- ri- cor- des|o- cu- los ad nos con-|ver- * *|
 ^F,2 z2 z2 | z!mf! ^G,2 G, G,G, | A,2 A,4 | ^F,2 F,F, F,F, | G,>G, G,2!f! ^G,2- | G,2 A, z (_B,2 | %39
w: te,|et os- ten- de|no- bis,|no- bis post hoc e-|xi- li- um Je-|* sum, fi-|
 A,)A,/=B,/!>(! (C2!>)! _B,2) |!p! !fermata!A,4!pp! D,2 | G,6 | A,4 z ^F, | G,6 | A,4 z ^F, | %45
w: * li- um tu- *|um, o|cle-|mens, o|pi-|a, o|
"^cresc." G,6 | A,6 |!f! G,>C B,2 A,2 | A,6 | G,4 z2 |!pp! G,2 E,3 A, | G,F, E,2 z2 | %52
w: dul-|cis|vir- * go Ma-|ri-|a.|Sal- ve Re-|gi- * na,|
!<(! C2 B,!<)!_B,!>(! A,A,!>)! | G,>G, G,2 z2 | z2!p! G,2 G,2 | z G, G,2 G,2 | G,3 F, E,A, | %57
w: ma- ter mi- se- ri-|cor- di- æ,|vi- ta|dul- ce- do|et spes nos- tra|
 G,2 G,2 z2 | z2 G,2 G,2 | z G, G,2 G,2 |!f! F,3 G, F,D, | !>!D,2 E,2 z2 | %62
w: sal- ve,|vi- ta,|dul- ce- do|et spes nos- tra|sal- ve,|
!pp!!>(! D,2!>)! !fermata!E,3 z | z!f! A,, A,_B,A,G, |!<(! F,D,!<)!!>(! E,4!>)! | %65
w: sal- ve,|ad te _ _ cla-|ma- * mus|
!p! E,2 G,G, A,A,/A,/ | _B,2 A,2 z2 | z!f! A,, A,_B, A,G, | F,D, E,3 z | %69
w: e- xu- les fi- li- i|E- væ,|ad te _ sus- pi-|ra- * mus-|
 z D,"^decresc." E,F, G,F,/E,/ | (D,2 E,F,) G,F,/E,/ |!p! F,2 E,A, A,A, |!pp! (E,4 A,2) | ^G,4 z2 | %74
w: ge- men- * tes et _|flen- * * tes in _|hac la- cry- ma- rum|val- *|le.|
!p!!<(! A,4 A,2!<)! |!ff! G,!>(!B,!>)! B,4 |!f! C3 G, A,A, | G,2 G,2 z2 | z2!p!!<(! A,2 A,2!<)! | %79
w: E- ia|er- * go,|ad- vo- ca- ta|nos- tra,|il- los|
!ff!!>(! G,B,!>)! B,4 |!f! C2 G,G, A,>A, | G,>G, G,!p!G, CC |!p!!>(! (B,4!>)! C2) | %83
w: tu- * os|rni- se- ri- cor- des|o- cu- los ad nos con-|ver- *|
 B,!p! G,2 G, G,G, | G,2 G,4 | G,2 G,G, G,G, | G,>G, G,3 G, | G,2 G,2!>(! ^F,2 | %88
w: te, et os- ten- de|no- bis,|no- bis post e- xi-|li- um, _ os-|ten- de Je-|
 G,2!>)! G, z!f! A,2- | A,A,/G,/ ^F,4 |!p! !fermata!G,4!pp! G,2 | G,6 | G,4 z G, | G,6 | G,4 z G, | %95
w: * sum, fi-|* li- um tu-|um, o|cle-|mens, o|pi-|a, o|
"^cresc." G,6 | B,6 |!>(! (A,3!>)! B,) CA, |!p! G,2 G,2 z2 | z2 z2 z!pp! C | B,D CB, A,G, | %101
w: dul-|cis|vir- * go Ma-|ri- a,|o|cle- * mens, * o _|
 G,>E, G,2 z C | B,D CB, A,G, |!<(! (C6 | B,3)!<)! D CB, |!f! A,>B, C2 C2 |!ff! (C2 B,2 A,2) | %107
w: pi- * a, o|dul- * cis, _ o _|dul-|* * cis *|vir- * go Ma-|ri- * *|
 B,4 !fermata!z2 |!pp! G,2 E,3 A, | G,>F, E,2 z2 |!mf!!<(! C2 B,!<)!_B,!>(! A,A,!>)! | %111
w: a.|Sal- ve Re-|gi- * na,|rna- ter rni- se- ri-|
 G,>G, G,2 z2 |!pp! A,2 E,2 z2 | A,2 E,2 z2 |!ff!!<(! ^C2 =C4-!<)! |!>(! CA,/!>)!A,/ (G,2 F,2) | %116
w: cor- di- ae,|||sal- *|* ve Re- gi- *|
 E,2 z2!p! F,2 | E,2!pp! z2 !fermata!F,2 | !fermata!E,2 z2 z2 |] %119
w: na, sal-|ve, sal-|ve.|
V:4
!f! C,2 C,3 F,, | G,,2 C,2 z2 |!<(! C,2 C,C,!<)!!>(! F,,F,,!>)! | G,,>G,, C,2 z2 | z2!p! C,2 C,2 | %5
w: Sal- ve Re-|gi- na,|ma- ter mi- se- ri-|cor- di- ae,|vi- ta,|
 z B,, B,,2 B,,2 | C,3 G,, A,,F,, | G,,2 G,,2 z2 | z2 C,2 C,2 | z B,, B,,2 B,,2 | %10
w: dul- ce- do|et spes nos- tra|sal- ve|vi- ta|dul- ce- do|
!f!!<(! A,,3 G,, C,F,,!<)! |!>(! G,,2 C,2!>)! z2 |!pp! G,,2 C,2 !fermata!z z | %13
w: et spes nos- tra|sal- ve,|sal- ve,|
 z!f! E, (A,^G,A,)G, |!<(! A,F,!<)!!>(! E,4!>)! |!p! E,2 B,,C, A,,A,,/A,,/ | B,,2 E,2 z2 | %17
w: ad te _ _ cla-|ma- * mus|e- xu- les fi- li- i|E- væ,|
 z!f! E, A,^G, A,G, |!<(! A,!<)!F,!>(! E,3!>)! z | z _E,"^decresc." D,2 D,2 | z _D, C,2!pp! C,2 | %21
w: ad te _ sus- pi-|ra- * mus|ge- men- tes|et flen- tes|
 =B,,B,, A,,A,, B,,C, | B,,6 | E,4 z2 |!p!!<(! D,4!<)! D,2 |!ff!!>(! G,,4!>)! G,,2 | %26
w: in hac la- cry- ma- rum|val-|le.|E- ia|* go,|
!mf! C,3 C, C,C, | D,2 E,2 z2 | z2!p!!<(! D,2 D,2!<)! |!ff!!>(! G,,4 G,,2!>)! |!mf! C,2 C,C, C,C, | %31
w: ad- vo- ca- ta|nos- tra,|il- los|tu- os|mi- se- ri- cor- des|
 D,>^D, E,E, =D,^C, |!p!!>(! (D,2 ^C,3!>)! D,) | D,!mf! D,2 D, D,D, | D,4 D,2 | D,2 D,D, D,D, | %36
w: o- cu- los ad nos con-|ver- * *|te, et os- ten- de|no- bis,|no- bis post hoc e-|
 D,>D, D,3 D, | D,3 D,!f! B,,2- | B,,2 C, z (^C,2 | D,)D,/D,/ D,4 |!p! !fermata!D,4!pp! D,2 | %41
w: xi- li- um os-|ten- de Je-|* sum, fi-|* li- um tu-|um, o|
 B,,6 | C,4 z C, | B,,6 | C,4 z C, |"^cresc." B,,6 | B,,6 |!f! C,>A,, B,,2 C,2 | D,6 | G,,4 z2 | %50
w: cle-|mens, o|pi-|a, o|dul-|cis|vir- * go Ma-|ri-|a.|
!pp! C,2 C,3 F,, | G,,2 C,2 z2 |!f!!<(! C,2 C,!<)!C,!>(! F,,F,,!>)! | G,,>G,, C,2 z2 | %54
w: Sal- ve Re-|gi- na,|ma- ter mi- se- ri|cor- di- æ,|
 z2!p! C,2 C,2 | z B,, B,,2 B,,2 | C,3 G,, A,,F,, | G,,2 G,,2 z2 | z2 C,2 _B,,2 | z A,, A,,2 A,,2 | %60
w: vi- ta|dul- ce- do|et spes nos- tra|sal- ve,|vi- ta,|dul- ce- do|
!f! _B,,3 B,, B,,B,, | !>!_B,,2 A,,2 z2 |!pp!!>(! _B,,2!>)! !fermata!A,,3 z | z!f! A,, D,^C,D,A,, | %64
w: et spes nos- tra|sal- ve,|sal- ve,|ad te _ _ cla-|
!<(! _B,,2!<)!!>(! A,,4!>)! |!p! A,,2 G,,G,, F,,A,,/A,,/ | C,2 F,2 z2 | z!f! A,, D,^C, D,A,, | %68
w: ma- mus|e- xu- les fi- li- i|E- væ,|ad te _ sus- pi-|
 _B,,2 A,,3 A,, | _B,,2"^decresc." A,,3 A,, | _B,,2 A,,3 A,, |!p! ^G,,2 A,,=B,, C,D, |!pp! E,6 | %73
w: ra- mus ge-|men- tes et|flen- tes in|hac la- cry- ma- rum|val-|
 E,4 z2 |!p!!<(! D,4 D,2!<)! |!ff!!>(! G,,4!>)! G,,2 |!f! C,3 C, F,F, | G,2 C,2 z2 | %78
w: le.|E- ia|er- go,|ad- vo- ca- ta|nos- tra,|
 z2!p!!<(! ^F,2 D,2!<)! |!ff!!>(! G,,4!>)! G,,2 |!f! C,2 C,C, F,>F, | G,>G, C,!p!D, E,^F, | %82
w: il- los|tu- os|rni- se- ri- cor- des|o- cu- los ad nos con-|
!p!!>(! (G,4!>)! ^F,2) | G,2 z2 z2 | z6 | z6 | z6 | z6 | z2 z2!f! D,2- | D,D,/D,/ D,4 | %90
w: ver- *|te,|||||fi-|* li- um tu-|
!p! !fermata!G,,4!pp! G,2 | E,6 | F,4 z F, | E,6 | F,4 z F, |"^cresc." E,6 | E,6 | %97
w: um, o|cle-|mens, o|pi-|a, o|dul-|cis|
!>(! (F,3!>)! ^G,) A,F, |!p! G,2 C,2!pp! G,2 | E,6 | F,4 z F, | E,6 | F,4 z F, |!<(! E,6!<)! | %104
w: vir- * go Ma-|ri- a, o|cle-|mens, o|pi-|a, o|dul-|
!<(! E,6!<)! |!f! F,>^G, A,2 A,2 |!ff! =G,6 | G,4 !fermata!z2 |!pp! C,2 C,3 F,, | G,,2 C,2 z2 | %110
w: cis|vir- * go Ma-|ri-|a.|Sal- ve Re-|gi- na|
!mf!!<(! C,2 C,!<)!C,!>(! F,,F,,!>)! | G,,>G,, C,2 z2 |!pp! A,,2 A,,2 z2 | A,,2 A,,2 z2 | %114
w: ma- ter mi- se- ri-|cor- di- æ,|sal- ve,|sal- ve,|
!ff!!<(! A,2 G,4!<)! |!>(! F,F,,/!>)!F,,/ G,,4 | C,2 z2!p! A,,2 | C,2!pp! z2 !fermata!G,,2 | %118
w: sal- *|* ve Re- gi-|na, sal-|ve, sal-|
 !fermata!C,2 z2 z2 |] %119
w: ve.|

